mapclient/public/content/images/svg/Draw-square.svg

<?xml version="1.0" encoding="UTF-8" standalone="no"?>
<!-- Generator: Adobe Illustrator 15.0.2, SVG Export Plug-In  -->

<svg
   xmlns:dc="http://purl.org/dc/elements/1.1/"
   xmlns:cc="http://creativecommons.org/ns#"
   xmlns:rdf="http://www.w3.org/1999/02/22-rdf-syntax-ns#"
   xmlns:svg="http://www.w3.org/2000/svg"
   xmlns="http://www.w3.org/2000/svg"
   xmlns:sodipodi="http://sodipodi.sourceforge.net/DTD/sodipodi-0.dtd"
   xmlns:inkscape="http://www.inkscape.org/namespaces/inkscape"
   version="1.1"
   x="0px"
   y="0px"
   width="30px"
   height="30px"
   viewBox="-2.5 -2.5 30 30"
   overflow="visible"
   enable-background="new -2.5 -2.5 30 30"
   xml:space="preserve"
   id="svg2"
   inkscape:version="0.48.4 r9939"
   sodipodi:docname="Draw-square.svg"><metadata
     id="metadata10"><rdf:RDF><cc:Work
         rdf:about=""><dc:format>image/svg+xml</dc:format><dc:type
           rdf:resource="http://purl.org/dc/dcmitype/StillImage" /></cc:Work></rdf:RDF></metadata><sodipodi:namedview
     pagecolor="#ffffff"
     bordercolor="#666666"
     borderopacity="1"
     objecttolerance="10"
     gridtolerance="10"
     guidetolerance="10"
     inkscape:pageopacity="0"
     inkscape:pageshadow="2"
     inkscape:window-width="640"
     inkscape:window-height="480"
     id="namedview8"
     showgrid="false"
     inkscape:zoom="7.8666667"
     inkscape:cx="15"
     inkscape:cy="15"
     inkscape:window-x="1627"
     inkscape:window-y="609"
     inkscape:window-maximized="0"
     inkscape:current-layer="svg2" /><defs
     id="defs4" /><path
     d="m 14.666,3.488 c 0.797,0 1.443,0.646 1.443,1.444 0,0.798 -0.646,1.444 -1.443,1.444 -0.799,0 -1.443,-0.646 -1.443,-1.444 0,-0.798 0.644,-1.444 1.443,-1.444 z m 0.751,4.283 0,9.457 c -0.242,-0.064 -0.49,-0.109 -0.752,-0.109 -0.262,0 -0.512,0.045 -0.754,0.109 l 0,-9.457 c 0.242,0.064 0.492,0.109 0.754,0.109 0.262,0 0.51,-0.045 0.752,-0.109 z M 3.943,21.512 c -0.798,0 -1.443,-0.646 -1.443,-1.443 0,-0.797 0.646,-1.443 1.443,-1.443 0.797,0 1.444,0.646 1.444,1.443 0,0.797 -0.646,1.443 -1.444,1.443 z m -0.852,-4.252 0,-9.52 c 0.271,0.083 0.554,0.141 0.853,0.141 0.225,0 0.441,-0.03 0.653,-0.078 l 0,9.395 C 4.385,17.151 4.168,17.12 3.944,17.12 3.645,17.119 3.362,17.178 3.091,17.26 z M 3.943,6.375 C 3.146,6.375 2.5,5.729 2.5,4.932 2.5,4.135 3.146,3.488 3.943,3.488 c 0.797,0 1.444,0.646 1.444,1.444 0,0.798 -0.646,1.443 -1.444,1.443 z m 7.882,14.447 -5.042,0 c 0.064,-0.242 0.109,-0.492 0.109,-0.754 0,-0.262 -0.045,-0.512 -0.109,-0.752 l 5.042,0 c -0.064,0.24 -0.109,0.49 -0.109,0.752 0,0.262 0.045,0.512 0.109,0.754 z m 0,-15.138 -5.042,0 C 6.847,5.443 6.892,5.193 6.892,4.932 6.892,4.67 6.847,4.421 6.783,4.179 l 5.042,0 c -0.064,0.242 -0.109,0.491 -0.109,0.753 0,0.261 0.045,0.511 0.109,0.752 z m 4.284,14.384 c 0,0.797 -0.646,1.443 -1.443,1.443 -0.799,0 -1.443,-0.646 -1.443,-1.443 0,-0.797 0.645,-1.443 1.443,-1.443 0.084,0 0.166,0.012 0.246,0.025 l 4.902,-7.105 1.238,0.855 -5.008,7.261 c 0.038,0.13 0.065,0.265 0.065,0.407 z m 5.668,-8.715 -1.24,-0.854 0.723,-1.049 1.24,0.855 z"
     id="path6"
     inkscape:connector-curvature="0"
     sodipodi:nodetypes="sssssccsccscsssssccsccccsssssccsccscccsccscssssccccsccccc" /></svg>

<?xml version="1.0" encoding="utf-8"?>
<!-- Generator: Adobe Illustrator 15.0.2, SVG Export Plug-In  -->
<!DOCTYPE svg PUBLIC "-//W3C//DTD SVG 1.1//EN" "http://www.w3.org/Graphics/SVG/1.1/DTD/svg11.dtd" [
	<!ENTITY ns_flows "http://ns.adobe.com/Flows/1.0/">
]>
<svg version="1.1"
	 xmlns="http://www.w3.org/2000/svg" xmlns:xlink="http://www.w3.org/1999/xlink" xmlns:a="http://ns.adobe.com/AdobeSVGViewerExtensions/3.0/"
	 x="0px" y="0px" width="30px" height="30px" viewBox="-2.5 -2.5 30 30"
	 overflow="visible" enable-background="new -2.5 -2.5 30 30" xml:space="preserve">
<defs>
</defs>
<path d="M0,0v25h25V0H0z M14.666,3.488c0.797,0,1.443,0.646,1.443,1.444s-0.646,1.444-1.443,1.444c-0.799,0-1.443-0.646-1.443-1.444
	S13.867,3.488,14.666,3.488z M15.417,7.771v9.457c-0.242-0.064-0.49-0.109-0.752-0.109s-0.512,0.045-0.754,0.109V7.771
	c0.242,0.064,0.492,0.109,0.754,0.109S15.175,7.835,15.417,7.771z M3.943,21.512c-0.798,0-1.443-0.646-1.443-1.443
	s0.646-1.443,1.443-1.443s1.444,0.646,1.444,1.443S4.741,21.512,3.943,21.512z M3.091,17.26V7.74
	c0.271,0.083,0.554,0.141,0.853,0.141c0.225,0,0.441-0.03,0.653-0.078v9.395c-0.212-0.047-0.429-0.078-0.653-0.078
	C3.645,17.119,3.362,17.178,3.091,17.26z M3.943,6.375C3.146,6.375,2.5,5.729,2.5,4.932s0.646-1.444,1.443-1.444
	s1.444,0.646,1.444,1.444S4.741,6.375,3.943,6.375z M11.825,20.822H6.783c0.064-0.242,0.109-0.492,0.109-0.754
	s-0.045-0.512-0.109-0.752h5.042c-0.064,0.24-0.109,0.49-0.109,0.752S11.761,20.58,11.825,20.822z M11.825,5.684H6.783
	c0.064-0.241,0.109-0.491,0.109-0.752c0-0.262-0.045-0.511-0.109-0.753h5.042c-0.064,0.242-0.109,0.491-0.109,0.753
	C11.716,5.193,11.761,5.443,11.825,5.684z M16.109,20.068c0,0.797-0.646,1.443-1.443,1.443c-0.799,0-1.443-0.646-1.443-1.443
	s0.645-1.443,1.443-1.443c0.084,0,0.166,0.012,0.246,0.025l4.902-7.105l1.238,0.855l-5.008,7.261
	C16.082,19.791,16.109,19.926,16.109,20.068z M21.777,11.353l-1.24-0.854l0.723-1.049l1.24,0.855L21.777,11.353z"/>
</svg>
